X:8772
T:L' Herberte - Valse/Walzer/Waltz
C:B. Boulanger
Z:abc transcription Simon Wascher
N:please mail errors to simon.wascher@chello.at
M:3/4
L:1/4
K:G
D|G>FG|B>AB|dg/f/g/d/|BAG|
A>Bc|FG^G|AFD|G/F/G/A/B/c/|
d/e/d/c/B/A/|G>FG|B>AB|dg/f/g/d/|
BAG|A>Bc|FG^G|AFD|G2:|
|:D|GD/G/D/G/|BAG|GD/G/D/G/|B/A/G/B/A/G/|
AF/A/F/A/|cBA|AF/A/F/A/|c/B/A/c/B/A/|
BG/B/G/B/|dg/f/g/d/|BG/B/G/B/|de>d|
cBA|BAG|Dc/B/A/B/|G2:|
